contribs/icons/la_bobine.svg

<?xml version="1.0" encoding="UTF-8" standalone="no"?>
<svg
   viewBox="0 0 192 192"
   version="1.1"
   id="svg3"
   sodipodi:docname="la_bobine.svg"
   xml:space="preserve"
   inkscape:version="1.3.2 (091e20ef0f, 2023-11-25)"
   xmlns:inkscape="http://www.inkscape.org/namespaces/inkscape"
   xmlns:sodipodi="http://sodipodi.sourceforge.net/DTD/sodipodi-0.dtd"
   xmlns="http://www.w3.org/2000/svg"
   xmlns:svg="http://www.w3.org/2000/svg"><sodipodi:namedview
     id="namedview3"
     pagecolor="#ffffff"
     bordercolor="#000000"
     borderopacity="0.25"
     inkscape:showpageshadow="2"
     inkscape:pageopacity="0.0"
     inkscape:pagecheckerboard="0"
     inkscape:deskcolor="#d1d1d1"
     inkscape:zoom="2.3113709"
     inkscape:cx="55.162069"
     inkscape:cy="111.83839"
     inkscape:window-width="1890"
     inkscape:window-height="1022"
     inkscape:window-x="0"
     inkscape:window-y="0"
     inkscape:window-maximized="1"
     inkscape:current-layer="svg3" /><defs
     id="defs1"><style
       id="style1">.a{fill:none;stroke:#b1b5bd;stroke-linecap:round;stroke-linejoin:round;isolation:isolate;opacity:0.63;}</style></defs><path
     d="M 172,113.54102 55.361328,64.460937 C 53.057695,63.492031 53.175954,60.18843 55.542969,59.386719 L 167.29297,21.539062 C 165.7563,20.578272 163.95337,20 162,20 H 30 c -5.539994,0 -10,4.460006 -10,10 v 132 c 0,5.53999 4.460006,10 10,10 h 132 c 5.53999,0 10,-4.46001 10,-10 z"
     style="opacity:1;isolation:isolate;fill:#4a4a4a;stroke-linecap:round;stroke-linejoin:round"
     id="path10"
     inkscape:label="background" /><g
     id="g11"
     inkscape:label="letter_b"><path
       style="fill:none;stroke:#ffffff;stroke-width:10;stroke-linecap:round;stroke-linejoin:round;stroke-dasharray:none;stroke-opacity:1"
       d="m 45.999802,25 3.95e-4,104.59035"
       id="path1"
       sodipodi:nodetypes="cc" /><path
       style="fill:none;stroke:#ffffff;stroke-width:10;stroke-linecap:round;stroke-linejoin:round;stroke-dasharray:none;stroke-opacity:1"
       d="m 46,153.71075 v 13.34546"
       id="path2"
       sodipodi:nodetypes="cc" /><path
       style="fill:none;stroke:#ffffff;stroke-width:10;stroke-linecap:round;stroke-linejoin:round;stroke-dasharray:none;stroke-opacity:1"
       d="M 25,141.34832 H 98.324097 V 98.442989 H 58.9701"
       id="path3"
       sodipodi:nodetypes="cccc" /></g><path
     d="M 172,113.54102 V 30 c 0,-3.586627 -1.88552,-6.696805 -4.70703,-8.460938 L 55.542969,59.386719 c -2.367015,0.801711 -2.485274,4.105312 -0.181641,5.074218 z"
     style="fill:#ffffff;stroke-linecap:round;stroke-linejoin:round"
     id="path11"
     inkscape:label="projection" /></svg>

<?xml version="1.0" encoding="UTF-8"?>
<svg version="1.1" viewBox="0 0 192 192" xmlns="http://www.w3.org/2000/svg">
 <path d="m172 113.54-116.64-49.08c-2.3036-0.96891-2.1854-4.2725 0.18164-5.0742l111.75-37.848c-1.5367-0.96079-3.3396-1.5391-5.293-1.5391h-132c-5.54 0-10 4.46-10 10v132c0 5.54 4.46 10 10 10h132c5.54 0 10-4.46 10-10z" style="fill:#56595b;isolation:isolate;stroke-linecap:round;stroke-linejoin:round"/>
 <path d="m46 25 3.95e-4 104.59" style="fill:none;stroke-linecap:round;stroke-linejoin:round;stroke-width:10;stroke:#fff"/>
 <path d="m46 153.71v13.345" style="fill:none;stroke-linecap:round;stroke-linejoin:round;stroke-width:10;stroke:#fff"/>
 <path d="m25 141.35h73.324v-42.905h-39.354" style="fill:none;stroke-linecap:round;stroke-linejoin:round;stroke-width:10;stroke:#fff"/>
 <path d="m172 113.54v-83.541c0-3.5866-1.8855-6.6968-4.707-8.4609l-111.75 37.848c-2.367 0.80171-2.4853 4.1053-0.18164 5.0742z" style="fill:#fff;stroke-linecap:round;stroke-linejoin:round"/>
</svg>
